lib/icons/menu.svg

<svg width="17" height="12" viewBox="0 0 17 12" fill="none" xmlns="http://www.w3.org/2000/svg">
<path fill-rule="evenodd" clip-rule="evenodd" d="M0.996094 0.5C0.996094 0.223858 1.21995 0 1.49609 0H16.493C16.7691 0 16.993 0.223858 16.993 0.5C16.993 0.776142 16.7691 1 16.493 1H1.49609C1.21995 1 0.996094 0.776142 0.996094 0.5ZM0.996094 5.99793C0.996094 5.72179 1.21995 5.49793 1.49609 5.49793H16.493C16.7691 5.49793 16.993 5.72179 16.993 5.99793C16.993 6.27407 16.7691 6.49793 16.493 6.49793H1.49609C1.21995 6.49793 0.996094 6.27407 0.996094 5.99793ZM1.49609 10.9958C1.21995 10.9958 0.996094 11.2197 0.996094 11.4958C0.996094 11.772 1.21995 11.9958 1.49609 11.9958H10.9945C11.2707 11.9958 11.4945 11.772 11.4945 11.4958C11.4945 11.2197 11.2707 10.9958 10.9945 10.9958H1.49609Z" fill="#7A859E"/>
</svg>

<svg width="17" height="12" fill="none" xmlns="http://www.w3.org/2000/svg"><path fill-rule="evenodd" clip-rule="evenodd" d="M.996.5a.5.5 0 0 1 .5-.5h14.997a.5.5 0 0 1 0 1H1.496a.5.5 0 0 1-.5-.5Zm0 5.498a.5.5 0 0 1 .5-.5h14.997a.5.5 0 0 1 0 1H1.496a.5.5 0 0 1-.5-.5Zm.5 4.998a.5.5 0 0 0 0 1h9.498a.5.5 0 1 0 0-1H1.497Z" fill="#7A859E"/></svg>
